;FLAVOR:Marlin
;TIME:4577
;Filament used: 3.28889m
;Layer height: 0.2
;MINX:131.4
;MINY:134.014
;MINZ:0.2
;MAXX:168.6
;MAXY:165.971
;MAXZ:50
;Generated with Cura_SteamEngine 4.6.2
M140 S60
M105
M190 S60
M104 S200
M105
M109 S200
M82 ;absolute extrusion mode
; -- START GCODE --
G21                     ;set units to millimetres
G90                     ;set to absolute positioning
M106 S0                 ;set fan speed to zero (turned off)
G28                     ;home all axis
G92 E0                  ;zero the extruded length
G1 Z1 F1000             ;move up slightly
G1 Y60.0 Z0 E9.0 F1000.0;intro line
G1 Y100.0 E21.5 F1000.0 ;continue line
G92 E0                  ;zero the extruded length again
; -- end of START GCODE --
G92 E0
G92 E0
G1 F2700 E-5
;LAYER_COUNT:250
;LAYER:0
M107
G0 F3600 X165.54 Y134.471 Z0.2
;TYPE:SKIRT
G1 F2700 E0
G1 F1200 X166.03 Y134.597 E0.01683
G1 X166.494 Y134.799 E0.03366
G1 X166.92 Y135.071 E0.05047
G1 X167.298 Y135.406 E0.06727
G1 X167.618 Y135.797 E0.08407
G1 X167.873 Y136.234 E0.1009
G1 X168.056 Y136.705 E0.11771
G1 X168.163 Y137.199 E0.13452
G1 X168.199 Y137.854 E0.15634
G1 X168.2 Y161.694 E0.94926
G1 X168.19 Y162.416 E0.97328
G1 X168.143 Y162.92 E0.99011
G1 X168.017 Y163.409 E1.00691
G1 X167.816 Y163.873 E1.02373
G1 X167.544 Y164.3 E1.04056
G1 X167.209 Y164.678 E1.05736
G1 X166.818 Y164.999 E1.07419
G1 X166.381 Y165.254 E1.09102
G1 X165.91 Y165.437 E1.10782
G1 X165.416 Y165.544 E1.12464
G1 X164.911 Y165.571 E1.14146
G1 X163.603 Y165.409 E1.18529
G1 X160.837 Y165.059 E1.27802
G1 X158.098 Y164.79 E1.36956
G1 X155.381 Y164.599 E1.46015
G1 X152.671 Y164.487 E1.55036
G1 X149.915 Y164.45 E1.64204
G1 X147.164 Y164.491 E1.73355
G1 X144.446 Y164.609 E1.82403
G1 X141.701 Y164.805 E1.91556
G1 X138.975 Y165.078 E2.00668
G1 X136.477 Y165.397 E2.09044
G1 X135.454 Y165.54 E2.1248
G1 X134.95 Y165.57 E2.14159
G1 X134.447 Y165.521 E2.1584
G1 X133.958 Y165.392 E2.17522
G1 X133.495 Y165.189 E2.19204
G1 X133.07 Y164.914 E2.20887
G1 X132.694 Y164.577 E2.22567
G1 X132.375 Y164.184 E2.2425
G1 X132.123 Y163.746 E2.25931
G1 X131.942 Y163.274 E2.27612
G1 X131.838 Y162.779 E2.29295
G1 X131.802 Y161.735 E2.32769
G1 X131.8 Y138.288 E3.10754
G1 X131.81 Y137.575 E3.13126
G1 X131.858 Y137.072 E3.14806
G1 X131.984 Y136.582 E3.16489
G1 X132.186 Y136.118 E3.18172
G1 X132.458 Y135.692 E3.19853
G1 X132.794 Y135.315 E3.21533
G1 X133.185 Y134.994 E3.23216
G1 X133.622 Y134.74 E3.24897
G1 X134.093 Y134.557 E3.26577
G1 X134.588 Y134.451 E3.28261
G1 X135.24 Y134.415 E3.30433
G1 X164.339 Y134.414 E4.27217
G1 X165.037 Y134.424 E4.29538
G1 X165.54 Y134.471 E4.31219
G1 F2700 E-0.68781
G0 F3600 X165.653 Y136.961
G0 X165.657 Y162.836
G0 X164.901 Y163.128
G0 X134.44 Y165.925
G1 F2700 E4.31219
G1 F1200 X133.918 Y165.801 E4.33003
G1 X133.421 Y165.6 E4.34786
G1 X132.959 Y165.328 E4.36569
G1 X132.542 Y164.99 E4.38355
G1 X132.181 Y164.595 E4.40135
G1 X131.882 Y164.149 E4.4192
G1 X131.652 Y163.665 E4.43703
G1 X131.498 Y163.151 E4.45487
G1 X131.412 Y162.424 E4.47922
G1 X131.402 Y161.741 E4.50194
G1 X131.4 Y138.288 E5.28199
G1 X131.41 Y137.569 E5.30591
G1 X131.458 Y137.035 E5.32374
G1 X131.585 Y136.514 E5.34158
G1 X131.788 Y136.017 E5.35943
G1 X132.062 Y135.556 E5.37727
G1 X132.402 Y135.141 E5.39511
G1 X132.8 Y134.782 E5.41294
G1 X133.246 Y134.485 E5.43076
G1 X133.732 Y134.257 E5.44862
G1 X134.246 Y134.105 E5.46644
G1 X134.909 Y134.024 E5.48866
G1 X164.345 Y134.014 E6.46771
G1 X165.043 Y134.024 E6.49092
G1 X165.577 Y134.072 E6.50876
G1 X166.098 Y134.198 E6.52658
G1 X166.595 Y134.401 E6.54444
G1 X167.056 Y134.675 E6.56228
G1 X167.471 Y135.014 E6.5801
G1 X167.831 Y135.412 E6.59795
G1 X168.128 Y135.858 E6.61577
G1 X168.356 Y136.344 E6.63363
G1 X168.508 Y136.858 E6.65145
G1 X168.59 Y137.523 E6.67374
G1 X168.6 Y161.7 E7.47787
G1 X168.59 Y162.422 E7.50189
G1 X168.542 Y162.956 E7.51972
G1 X168.416 Y163.477 E7.53755
G1 X168.214 Y163.974 E7.55539
G1 X167.94 Y164.435 E7.57323
G1 X167.601 Y164.85 E7.59105
G1 X167.204 Y165.211 E7.6089
G1 X166.758 Y165.508 E7.62672
G1 X166.272 Y165.736 E7.64457
G1 X165.758 Y165.889 E7.66241
G1 X165.227 Y165.964 E7.68025
G1 X164.494 Y165.938 E7.70464
G1 X163.51 Y165.801 E7.73769
G1 X160.819 Y165.459 E7.82791
G1 X158.067 Y165.188 E7.91988
G1 X155.372 Y164.999 E8.00974
G1 X152.648 Y164.886 E8.10042
G1 X149.915 Y164.85 E8.19133
G1 X147.188 Y164.89 E8.28204
G1 X144.456 Y165.009 E8.37299
G1 X141.736 Y165.204 E8.46369
G1 X139.03 Y165.475 E8.55414
G1 X136.514 Y165.796 E8.6385
G1 X135.51 Y165.936 E8.67222
G1 X134.974 Y165.971 E8.69008
G1 X134.44 Y165.925 E8.70791
G1 F2700 E3.70791
;MESH:mainblock-servo.stl
G0 F3600 X162.333 Y160.722
G0 X163.011 Y159.877
G0 X164.102 Y160.597
;TYPE:WALL-INNER
G1 F2700 E8.70791
G1 F1200 X164.017 Y160.52 E8.71172
G1 X163.623 Y160.162 E8.72943
G1 X163.132 Y159.742 E8.75092
G1 X162.626 Y159.337 E8.77248
G1 X162.109 Y158.948 E8.794
G1 X161.579 Y158.577 E8.81551
G1 X161.037 Y158.221 E8.83708
G1 X160.487 Y157.884 E8.85854
G1 X159.924 Y157.563 E8.88009
G1 X159.353 Y157.26 E8.90159
G1 X158.771 Y156.975 E8.92314
G1 X158.181 Y156.708 E8.94468
G1 X157.583 Y156.461 E8.9662
G1 X156.979 Y156.233 E8.98768
G1 X156.366 Y156.023 E9.00923
G1 X155.748 Y155.832 E9.03074
G1 X155.123 Y155.661 E9.05229
G1 X154.494 Y155.511 E9.0738
G1 X153.86 Y155.38 E9.09533
G1 X153.223 Y155.268 E9.11684
G1 X152.582 Y155.177 E9.13838
G1 X151.939 Y155.106 E9.15989
G1 X151.294 Y155.055 E9.18141
G1 X150.647 Y155.024 E9.20296
G1 X150 Y155.014 E9.22448
G1 X149.353 Y155.024 E9.246
G1 X148.706 Y155.055 E9.26755
G1 X148.061 Y155.106 E9.28907
G1 X147.418 Y155.177 E9.31058
G1 X146.777 Y155.268 E9.33212
G1 X146.14 Y155.38 E9.35363
G1 X145.506 Y155.511 E9.37516
G1 X144.877 Y155.661 E9.39667
G1 X144.252 Y155.832 E9.41822
G1 X143.634 Y156.023 E9.43973
G1 X143.021 Y156.233 E9.46128
G1 X142.417 Y156.461 E9.48276
G1 X141.819 Y156.708 E9.50428
G1 X141.229 Y156.975 E9.52582
G1 X140.647 Y157.26 E9.54737
G1 X140.076 Y157.563 E9.56887
G1 X139.513 Y157.884 E9.59042
G1 X138.962 Y158.221 E9.61191
G1 X138.421 Y158.577 E9.63345
G1 X137.891 Y158.948 E9.65496
G1 X137.374 Y159.337 E9.67648
G1 X136.869 Y159.742 E9.69801
G1 X136.378 Y160.162 E9.7195
G1 X135.984 Y160.519 E9.73719
G1 X135.898 Y160.597 E9.74105
G1 X135.602 Y160.885 E9.75479
G1 X135.602 Y160.598 E9.75756
G1 X135.602 Y160.481 E9.76099
G1 X135.6 Y138.414 E10.49495
G1 X135.6 Y138.214 E10.5016
G1 X135.8 Y138.214 E10.50591
G1 X164.4 Y138.214 E11.45715
G1 X164.4 Y160.482 E12.19778
G1 X164.4 Y160.597 E12.20116
G1 X164.4 Y160.887 E12.21081
G1 X164.102 Y160.597 E12.21782
G0 F3600 X160.945 Y158.353
G0 X159.286 Y157.406
G0 X157.518 Y156.608
G0 X155.709 Y155.988
G0 X153.196 Y155.426
G0 X151.29 Y155.216
G0 X149.365 Y155.185
G0 X147.433 Y155.338
G0 X144.924 Y155.815
G0 X143.07 Y156.386
G0 X141.303 Y157.117
G0 X139.6 Y158.019
G0 X137.979 Y159.082
G0 X136.013 Y160.709
G0 X135.717 Y161.331
;TYPE:WALL-OUTER
G1 F1200 X135.546 Y161.509 E12.22603
G1 X135.202 Y161.866 E12.24252
G1 X135.202 Y161.371 E12.25135
G1 X135.202 Y161.37 E12.25138
G1 X135.2 Y138.014 E13.02821
G1 X135.2 Y137.814 E13.03486
G1 X135.4 Y137.814 E13.03917
G1 X164.8 Y137.814 E14.01702
G1 X164.8 Y161.372 E14.80056
G1 X164.8 Y161.373 E14.80059
G1 X164.8 Y161.868 E14.81705
G1 X164.456 Y161.511 E14.8259
G1 X164.285 Y161.333 E14.83411
G1 X163.828 Y160.889 E14.8553
G1 X163.358 Y160.462 E14.87642
G1 X162.877 Y160.05 E14.89749
G1 X162.381 Y159.653 E14.91862
G1 X161.874 Y159.272 E14.93971
G1 X161.354 Y158.908 E14.96082
G1 X160.823 Y158.559 E14.98196
G1 X160.283 Y158.228 E15.00302
G1 X159.731 Y157.913 E15.02416
G1 X159.171 Y157.616 E15.04524
G1 X158.601 Y157.337 E15.06635
G1 X158.022 Y157.075 E15.08749
G1 X157.436 Y156.833 E15.10858
G1 X156.843 Y156.609 E15.12966
G1 X156.242 Y156.403 E15.15079
G1 X155.636 Y156.216 E15.17188
G1 X155.024 Y156.049 E15.19298
G1 X154.407 Y155.901 E15.21409
G1 X153.785 Y155.773 E15.23521
G1 X153.16 Y155.663 E15.25632
G1 X152.532 Y155.574 E15.27741
G1 X151.901 Y155.504 E15.29853
G1 X151.269 Y155.454 E15.31961
G1 X150.634 Y155.424 E15.34076
G1 X150 Y155.414 E15.36185
G1 X149.366 Y155.424 E15.38294
G1 X148.731 Y155.454 E15.40408
G1 X148.099 Y155.504 E15.42517
G1 X147.468 Y155.574 E15.44628
G1 X146.84 Y155.663 E15.46738
G1 X146.215 Y155.773 E15.48848
G1 X145.593 Y155.901 E15.50961
G1 X144.976 Y156.049 E15.53071
G1 X144.364 Y156.216 E15.55181
G1 X143.758 Y156.403 E15.5729
G1 X143.157 Y156.609 E15.59403
G1 X142.564 Y156.833 E15.61512
G1 X141.978 Y157.075 E15.6362
G1 X141.399 Y157.337 E15.65734
G1 X140.829 Y157.616 E15.67845
G1 X140.269 Y157.913 E15.69953
G1 X139.717 Y158.228 E15.72067
G1 X139.176 Y158.559 E15.74177
G1 X138.646 Y158.908 E15.76287
G1 X138.126 Y159.272 E15.78398
G1 X137.619 Y159.653 E15.80508
G1 X137.124 Y160.05 E15.82618
G1 X136.642 Y160.462 E15.84727
G1 X136.172 Y160.889 E15.86839
G1 X135.717 Y161.331 E15.88949
G0 F3600 X135.578 Y161.475
G0 X135.507 Y161.406
G0 X135.992 Y159.985
;TYPE:SKIN
G1 F1200 X135.99 Y138.604 E16.60062
G1 X164.01 Y138.604 E17.53257
G1 X164.01 Y159.986 E18.24374
G1 X163.381 Y159.442 E18.2714
G1 X162.866 Y159.029 E18.29336
G1 X162.339 Y158.632 E18.3153
G1 X161.798 Y158.254 E18.33725
G1 X161.246 Y157.892 E18.35921
G1 X160.686 Y157.548 E18.38107
G1 X160.112 Y157.222 E18.40302
G1 X159.53 Y156.913 E18.42494
G1 X158.937 Y156.622 E18.44691
G1 X158.335 Y156.35 E18.46888
G1 X157.727 Y156.098 E18.49077
G1 X157.111 Y155.866 E18.51267
G1 X156.487 Y155.652 E18.53461
G1 X155.857 Y155.458 E18.55653
G1 X155.22 Y155.283 E18.5785
G1 X154.578 Y155.13 E18.60045
G1 X153.934 Y154.997 E18.62233
G1 X153.284 Y154.882 E18.64428
G1 X152.631 Y154.79 E18.66621
G1 X151.976 Y154.718 E18.68813
G1 X151.319 Y154.665 E18.71005
G1 X150.659 Y154.634 E18.73203
G1 X150 Y154.624 E18.75395
G1 X149.341 Y154.634 E18.77587
G1 X148.681 Y154.665 E18.79785
G1 X148.024 Y154.718 E18.81977
G1 X147.369 Y154.79 E18.84169
G1 X146.716 Y154.882 E18.86362
G1 X146.066 Y154.997 E18.88557
G1 X145.422 Y155.13 E18.90745
G1 X144.78 Y155.283 E18.9294
G1 X144.143 Y155.458 E18.95137
G1 X143.513 Y155.652 E18.97329
G1 X142.889 Y155.866 E18.99523
G1 X142.273 Y156.098 E19.01713
G1 X141.665 Y156.35 E19.03902
G1 X141.063 Y156.622 E19.06099
G1 X140.47 Y156.913 E19.08296
G1 X139.888 Y157.222 E19.10488
G1 X139.314 Y157.548 E19.12683
G1 X138.753 Y157.892 E19.14872
G1 X138.202 Y158.255 E19.17067
G1 X137.661 Y158.632 E19.1926
G1 X137.134 Y159.029 E19.21454
G1 X136.62 Y159.442 E19.23647
G1 X136.12 Y159.869 E19.25834
G1 X135.992 Y159.985 E19.26409
G0 F3600 X136.292 Y159.485
G1 F1200 X136.171 Y159.364 E19.26978
G0 F3600 X136.599 Y159.227
G1 F1200 X136.171 Y158.798 E19.28993
G0 F3600 X136.171 Y158.232
G1 F1200 X136.912 Y158.974 E19.32481
G0 F3600 X137.231 Y158.727
G1 F1200 X136.171 Y157.667 E19.37467
G0 F3600 X136.171 Y157.101
G1 F1200 X137.554 Y158.485 E19.43975
G0 F3600 X137.887 Y158.252
G1 F1200 X136.171 Y156.535 E19.52049
G0 F3600 X136.171 Y155.97
G1 F1200 X138.224 Y158.023 E19.61705
G0 F3600 X138.565 Y157.798
G1 F1200 X136.171 Y155.404 E19.72966
G0 F3600 X136.171 Y154.838
G1 F1200 X138.913 Y157.58 E19.85863
G0 F3600 X139.265 Y157.367
G1 F1200 X136.171 Y154.273 E20.00417
G0 F3600 X136.171 Y153.707
G1 F1200 X139.626 Y157.162 E20.16668
G0 F3600 X139.991 Y156.962
G1 F1200 X136.171 Y153.141 E20.34638
G0 F3600 X136.17 Y152.575
G1 F1200 X140.361 Y156.766 E20.54352
G0 F3600 X140.739 Y156.578
G1 F1200 X136.17 Y152.009 E20.75843
G0 F3600 X136.17 Y151.443
G1 F1200 X141.122 Y156.396 E20.99138
G0 F3600 X141.512 Y156.22
G1 F1200 X136.17 Y150.878 E21.24265
G0 F3600 X136.17 Y150.312
G1 F1200 X141.909 Y156.052 E21.51262
G0 F3600 X142.313 Y155.889
G1 F1200 X136.17 Y149.746 E21.80157
G0 F3600 X136.17 Y149.181
G1 F1200 X142.724 Y155.735 E22.10985
G0 F3600 X143.143 Y155.588
G1 F1200 X136.17 Y148.615 E22.43783
G0 F3600 X136.17 Y148.049
G1 F1200 X143.566 Y155.446 E22.78574
G0 F3600 X143.999 Y155.313
G1 F1200 X136.17 Y147.484 E23.15399
G0 F3600 X136.17 Y146.918
G1 F1200 X144.439 Y155.188 E23.54297
G0 F3600 X144.888 Y155.07
G1 F1200 X136.17 Y146.352 E23.95303
G0 F3600 X136.17 Y145.787
G1 F1200 X145.345 Y154.961 E24.38458
G0 F3600 X145.813 Y154.864
G1 F1200 X136.169 Y145.22 E24.8382
G0 F3600 X136.169 Y144.654
G1 F1200 X146.289 Y154.774 E25.31421
G0 F3600 X146.772 Y154.691
G1 F1200 X136.169 Y144.089 E25.81292
G0 F3600 X136.169 Y143.523
G1 F1200 X147.267 Y154.621 E26.33494
G0 F3600 X147.775 Y154.563
G1 F1200 X136.169 Y142.957 E26.88085
G0 F3600 X136.169 Y142.392
G1 F1200 X148.292 Y154.514 E27.45105
G0 F3600 X148.819 Y154.476
G1 F1200 X136.169 Y141.826 E28.04607
G0 F3600 X136.169 Y141.26
G1 F1200 X149.36 Y154.451 E28.66654
G0 F3600 X149.918 Y154.444
G1 F1200 X136.169 Y140.695 E29.31325
G0 F3600 X136.169 Y140.129
G1 F1200 X150.49 Y154.45 E29.98686
G0 F3600 X151.077 Y154.471
G1 F1200 X136.169 Y139.563 E30.68809
G0 F3600 X136.169 Y138.998
G1 F1200 X151.684 Y154.512 E31.41784
G0 F3600 X152.31 Y154.573
G1 F1200 X136.521 Y138.783 E32.16053
G0 F3600 X137.086 Y138.783
G1 F1200 X152.956 Y154.653 E32.90701
G0 F3600 X153.628 Y154.759
G1 F1200 X137.652 Y138.783 E33.65847
G0 F3600 X138.218 Y138.783
G1 F1200 X154.328 Y154.894 E34.41626
G0 F3600 X155.057 Y155.057
G1 F1200 X138.783 Y138.783 E35.18174
G0 F3600 X139.349 Y138.783
G1 F1200 X155.829 Y155.263 E35.95691
G1 X155.899 Y155.333
G0 F3600 X156.649 Y155.518
G1 F1200 X139.915 Y138.783 E36.74405
G0 F3600 X140.48 Y138.783
G1 F1200 X157.527 Y155.83 E37.54589
G1 X157.597 Y155.9
G0 F3600 X158.481 Y156.218
G1 F1200 X141.046 Y138.783 E38.36597
G0 F3600 X141.612 Y138.783
G1 F1200 X159.552 Y156.723 E39.20982
G1 X159.622 Y156.793
G0 F3600 X160.805 Y157.411
G1 F1200 X142.177 Y138.783 E40.08602
G0 F3600 X142.743 Y138.783
G1 F1200 X162.454 Y158.494 E41.01317
G1 X162.524 Y158.564
G0 F3600 X163.829 Y158.738
G1 F1200 X143.875 Y138.783 E41.95176
G0 F3600 X144.44 Y138.783
G1 F1200 X163.829 Y158.172 E42.86376
G0 F3600 X163.829 Y157.607
G1 F1200 X145.006 Y138.783 E43.74916
G0 F3600 X145.572 Y138.783
G1 F1200 X163.829 Y157.041 E44.60794
G0 F3600 X163.829 Y156.475
G1 F1200 X146.137 Y138.783 E45.44012
G0 F3600 X146.703 Y138.783
G1 F1200 X163.829 Y155.909 E46.24567
G0 F3600 X163.829 Y155.344
G1 F1200 X147.269 Y138.783 E47.02463
G0 F3600 X147.834 Y138.783
G1 F1200 X163.829 Y154.778 E47.77698
G0 F3600 X163.829 Y154.212
G1 F1200 X148.4 Y138.783 E48.50272
G0 F3600 X148.966 Y138.783
G1 F1200 X163.829 Y153.647 E49.20185
G0 F3600 X163.829 Y153.081
G1 F1200 X149.531 Y138.783 E49.87438
G0 F3600 X150.097 Y138.783
G1 F1200 X163.829 Y152.515 E50.52029
G0 F3600 X163.829 Y151.95
G1 F1200 X150.663 Y138.783 E51.13961
G0 F3600 X151.228 Y138.783
G1 F1200 X163.829 Y151.384 E51.73232
G0 F3600 X163.829 Y150.818
G1 F1200 X151.794 Y138.783 E52.29841
G0 F3600 X152.36 Y138.783
G1 F1200 X163.829 Y150.253 E52.8379
G0 F3600 X163.829 Y149.687
G1 F1200 X152.925 Y138.783 E53.35079
G0 F3600 X153.491 Y138.783
G1 F1200 X163.829 Y149.121 E53.83706
G0 F3600 X163.829 Y148.556
G1 F1200 X154.057 Y138.783 E54.29673
G0 F3600 X154.623 Y138.783
G1 F1200 X163.829 Y147.99 E54.72977
G0 F3600 X163.829 Y147.424
G1 F1200 X155.188 Y138.783 E55.13622
G0 F3600 X155.754 Y138.783
G1 F1200 X163.829 Y146.859 E55.51606
G0 F3600 X163.829 Y146.293
G1 F1200 X156.32 Y138.783 E55.86929
G0 F3600 X156.885 Y138.783
G1 F1200 X163.829 Y145.727 E56.19591
G0 F3600 X163.829 Y145.161
G1 F1200 X157.451 Y138.783 E56.49591
G0 F3600 X158.017 Y138.783
G1 F1200 X163.829 Y144.596 E56.76932
G0 F3600 X163.829 Y144.03
G1 F1200 X158.582 Y138.783 E57.01612
G0 F3600 X159.148 Y138.783
G1 F1200 X163.829 Y143.464 E57.2363
G0 F3600 X163.829 Y142.899
G1 F1200 X159.714 Y138.783 E57.42988
G0 F3600 X160.279 Y138.783
G1 F1200 X163.829 Y142.333 E57.59686
G0 F3600 X163.829 Y141.767
G1 F1200 X160.845 Y138.783 E57.73722
G0 F3600 X161.411 Y138.783
G1 F1200 X163.829 Y141.202 E57.85098
G0 F3600 X163.829 Y140.636
G1 F1200 X161.976 Y138.783 E57.93814
G0 F3600 X162.542 Y138.783
G1 F1200 X163.829 Y140.07 E57.99867
G0 F3600 X163.829 Y139.505
G1 F1200 X163.108 Y138.783 E58.03261
G0 F3600 X163.674 Y138.783
G1 F1200 X163.829 Y138.939 E58.03992
G0 F3600 X163.829 Y159.304
G1 F1200 X143.309 Y138.783 E59.00515
G1 X143.239 Y138.713
;MESH:NONMESH
G0 F600 X143.239 Y138.713 Z0.4
